icons/lines/security-time.svg

<svg xmlns="http://www.w3.org/2000/svg" width="24" height="24" viewBox="0 0 24 24" fill="none" stroke="currentColor" stroke-width="2" stroke-linecap="round" stroke-linejoin="round" >
  <path d="M10.4901 2.23L5.50015 4.1C4.35015 4.53 3.41016 5.89 3.41016 7.12V14.55C3.41016 15.73 4.19017 17.28 5.14017 17.99L9.44016 21.2C10.8502 22.26 13.1701 22.26 14.5801 21.2L18.8802 17.99C19.8302 17.28 20.6101 15.73 20.6101 14.55V7.12C20.6101 5.89 19.6701 4.53 18.5201 4.1L13.5302 2.23C12.6802 1.92 11.3201 1.92 10.4901 2.23Z"/>
  <path d="M12 15.5C14.2091 15.5 16 13.7091 16 11.5C16 9.29086 14.2091 7.5 12 7.5C9.79086 7.5 8 9.29086 8 11.5C8 13.7091 9.79086 15.5 12 15.5Z" stroke-miterlimit="10"/>
  <path d="M12.25 10.25V11.18C12.25 11.53 12.07 11.86 11.76 12.04L11 12.5" stroke-miterlimit="10"/>
  </svg>

<svg xmlns="http://www.w3.org/2000/svg" width="24" height="24" viewBox="0 0 24 24" fill="none" stroke="currentColor" stroke-width="2" stroke-linecap="round" stroke-linejoin="round">
  <path d="M12.25 10.25v.93a1 1 0 0 1-.49.86l-.76.46" />
  <path d="M5.5 4.1c-1.15.43-2.09 1.79-2.09 3.02v7.43c0 1.18.78 2.73 1.73 3.44l4.3 3.21c1.41 1.06 3.73 1.06 5.14 0l4.3-3.21c.95-.71 1.73-2.26 1.73-3.44V7.12c0-1.23-.94-2.59-2.09-3.02l-4.99-1.87c-.85-.31-2.21-.31-3.04 0z" />
  <circle cx="12" cy="11.5" r="4" />
</svg>
